docs/.gitbook/assets/chain-icons/kujira.svg

<svg xmlns="http://www.w3.org/2000/svg" xmlns:xlink="http://www.w3.org/1999/xlink" width="80px" height="80px" viewBox="0 0 80 80" version="1.1">
    <title>kujira-blue-mobile</title>
    <g id="kujira-blue-mobile" stroke="none" stroke-width="1" fill="none" fill-rule="evenodd">
        <g id="Group" fill="#E53935" fill-rule="nonzero">
            <path d="M40,0 C62.09139,0 80,17.90861 80,40 C80,62.09139 62.09139,80 40,80 C17.90861,80 0,62.09139 0,40 C0,17.90861 17.90861,0 40,0 Z M40,3.73333333 C19.9704731,3.73333333 3.73333333,19.9704731 3.73333333,40 C3.73333333,60.0295269 19.9704731,76.2666667 40,76.2666667 C60.0295269,76.2666667 76.2666667,60.0295269 76.2666667,40 C76.2666667,19.9704731 60.0295269,3.73333333 40,3.73333333 Z" id="Oval"/>
            <path d="M63.5283843,25.2869565 L63.5283843,21.8956522 L52.7860262,21.8956522 C52.209607,19.7043478 51.6331878,17.773913 51.0043668,16 L47.3886463,16.626087 C48.0174672,18.1913043 48.6462882,19.9652174 49.2227074,21.8956522 L37.8515284,21.8956522 L37.8515284,25.2869565 L63.5283843,25.2869565 Z M36.0174672,50.4869565 L36.0174672,28.8347826 L30.7248908,28.8347826 C31.8253275,27.2173913 32.9257642,25.2347826 34.0262009,22.8347826 L34.0262009,20.3304348 L25.3799127,20.3304348 C25.8515284,19.2869565 26.2707424,18.2434783 26.6899563,17.1478261 L23.3362445,16.1043478 C21.7641921,21.2173913 19.30131,25.3391304 16,28.5217391 L16.7860262,32.226087 C17.4672489,31.6 18.1484716,30.973913 18.7772926,30.2956522 L18.7772926,50.4869565 L36.0174672,50.4869565 Z M27.1091703,28.8347826 L20.0873362,28.8347826 C21.4497817,27.1652174 22.7598253,25.2869565 23.9126638,23.3043478 L30.5152838,23.3043478 C29.3624454,25.3913043 28.2620087,27.2695652 27.1091703,28.8347826 Z M48.69869,64 C51.3187773,64 52.6812227,62.5391304 52.6812227,59.6695652 L52.6812227,44.8 L61.0131004,44.8 L61.0131004,29.9826087 L40.628821,29.9826087 L40.628821,44.8 L49.0131004,44.8 L49.0131004,58.7826087 C49.0131004,60.0869565 48.489083,60.7652174 47.441048,60.7652174 C46.2358079,60.7652174 44.9781659,60.6608696 43.720524,60.5043478 L44.4541485,64 L48.69869,64 Z M25.9039301,38.1217391 L22.0262009,38.1217391 L22.0262009,31.9130435 L25.9039301,31.9130435 L25.9039301,38.1217391 Z M32.768559,38.1217391 L28.9432314,38.1217391 L28.9432314,31.9130435 L32.768559,31.9130435 L32.768559,38.1217391 Z M57.4497817,41.5130435 L44.1921397,41.5130435 L44.1921397,33.3217391 L57.4497817,33.3217391 L57.4497817,41.5130435 Z M32.768559,47.3565217 L28.9432314,47.3565217 L28.9432314,41.1478261 L32.768559,41.1478261 L32.768559,47.3565217 Z M25.9039301,47.3565217 L22.0262009,47.3565217 L22.0262009,41.1478261 L25.9039301,41.1478261 L25.9039301,47.3565217 Z M61.2227074,61.6 L64,59.6695652 C62.5851528,56.3304348 60.5938865,52.4695652 57.9737991,48.0347826 L55.1965066,49.7043478 C57.7117904,54.0347826 59.7554585,58 61.2227074,61.6 Z M39.2663755,62.4869565 C41.5720524,58.8869565 43.5633188,54.6086957 45.2401747,49.7043478 L42.2008734,48.2434783 C40.5764192,52.9391304 38.6375546,57.0086957 36.4366812,60.4521739 L39.2663755,62.4869565 Z M34.9170306,58.9391304 L37.4847162,58.3130435 C36.7510917,55.8086957 36.0174672,53.6173913 35.1790393,51.7391304 L32.7161572,52.4695652 C33.5545852,54.5565217 34.2882096,56.6956522 34.9170306,58.9391304 Z M29.3624454,61.9652174 L32.0873362,61.6521739 C31.7729258,57.6869565 31.1965066,54.5565217 30.3580786,52.2608696 L27.7379913,52.573913 C28.5764192,54.7652174 29.1004367,57.8956522 29.3624454,61.9652174 Z M19.3537118,63.373913 C20.4541485,60.2956522 21.1353712,56.8 21.4497817,52.8347826 L18.6200873,52.4695652 C18.3580786,56.226087 17.6244541,59.5652174 16.4716157,62.4869565 L19.3537118,63.373913 Z M23.7554585,62.7478261 L26.4803493,62.4347826 C26.3755459,58.3130435 26.1135371,55.026087 25.7467249,52.626087 L23.231441,52.9391304 C23.4934498,55.2347826 23.650655,58.5217391 23.7554585,62.7478261 Z" id="鯨"/>
        </g>
    </g>
</svg>

<svg xmlns="http://www.w3.org/2000/svg" width="80" height="80"><g fill="#E53935" fill-rule="nonzero"><path d="M40 0c22.091 0 40 17.909 40 40S62.091 80 40 80 0 62.091 0 40 17.909 0 40 0Zm0 3.733C19.97 3.733 3.733 19.97 3.733 40 3.733 60.03 19.97 76.267 40 76.267c20.03 0 36.267-16.237 36.267-36.267C76.267 19.97 60.03 3.733 40 3.733Z"/><path d="M63.528 25.287v-3.391H52.786c-.576-2.192-1.153-4.122-1.782-5.896l-3.615.626a61.122 61.122 0 0 1 1.834 5.27H37.852v3.391h25.676Zm-27.51 25.2V28.835h-5.293c1.1-1.618 2.2-3.6 3.301-6V20.33H25.38c.472-1.043.89-2.087 1.31-3.182l-3.354-1.044C21.764 21.217 19.301 25.34 16 28.522l.786 3.704c.681-.626 1.362-1.252 1.991-1.93v20.191h17.24Zm-8.909-21.652h-7.022a43.064 43.064 0 0 0 3.826-5.53h6.602c-1.153 2.086-2.253 3.965-3.406 5.53ZM48.7 64c2.62 0 3.982-1.46 3.982-4.33V44.8h8.332V29.983H40.63V44.8h8.384v13.983c0 1.304-.524 1.982-1.572 1.982-1.205 0-2.463-.104-3.72-.26L44.454 64H48.7ZM25.904 38.122h-3.878v-6.209h3.878v6.209Zm6.865 0h-3.826v-6.209h3.826v6.209Zm24.68 3.391H44.193v-8.191H57.45v8.191Zm-24.68 5.844h-3.826v-6.21h3.826v6.21Zm-6.865 0h-3.878v-6.21h3.878v6.21ZM61.223 61.6 64 59.67c-1.415-3.34-3.406-7.2-6.026-11.635l-2.777 1.67c2.515 4.33 4.558 8.295 6.026 11.895Zm-21.957.887c2.306-3.6 4.297-7.878 5.974-12.783l-3.04-1.46c-1.624 4.695-3.562 8.765-5.763 12.208l2.83 2.035Zm-4.349-3.548 2.568-.626c-.734-2.504-1.468-4.696-2.306-6.574l-2.463.73a62.595 62.595 0 0 1 2.201 6.47Zm-5.555 3.026 2.725-.313c-.314-3.965-.89-7.095-1.729-9.391l-2.62.313c.838 2.191 1.362 5.322 1.624 9.391Zm-10.008 1.409c1.1-3.078 1.781-6.574 2.096-10.54l-2.83-.364c-.262 3.756-.996 7.095-2.148 10.017l2.882.887Zm4.401-.626 2.725-.313c-.104-4.122-.366-7.409-.733-9.809l-2.516.313c.262 2.296.42 5.583.524 9.809Z"/></g></svg>
